build/images/content/benefits/img_2.svg

<svg width="80" height="80" viewBox="0 0 80 80" fill="none" xmlns="http://www.w3.org/2000/svg">
<g clip-path="url(#clip0)">
<path d="M78.0385 49.8547C77.5998 50.1587 77.1369 50.4262 76.6545 50.6547C76.0772 50.9493 75.1119 51.4427 75.0439 51.7893C74.959 52.2446 75.0134 52.7148 75.1999 53.1387C75.3985 53.5653 75.6079 53.932 75.7865 54.2493C76.2759 55.1107 77.0919 56.5547 75.8599 57.5627C75.5719 57.8293 75.0745 58.2147 74.6199 58.5627C74.954 59.1461 75.1054 59.8163 75.0545 60.4867C74.9845 61.0114 74.7014 61.484 74.2719 61.7933C73.9719 62.0067 73.6505 62.1933 73.3385 62.3733C72.5545 62.82 72.2479 63.028 72.1385 63.44C72.0668 63.9824 72.1169 64.534 72.2852 65.0547C72.3639 65.4013 72.4399 65.7467 72.4892 66.1013C72.6214 67.3174 72.467 68.5476 72.0385 69.6933C71.4401 71.8165 69.5201 73.296 67.3145 73.3333C66.9485 73.332 66.5835 73.2936 66.2252 73.2187C62.4161 72.316 58.6627 71.1927 54.9839 69.8547C51.9812 71.6173 50.0825 76.9773 49.5879 78.9893C49.4396 79.5836 48.9057 80.0005 48.2932 80L14.8265 79.9067C14.4024 79.9059 14.004 79.7033 13.7534 79.3611C13.5028 79.0189 13.43 78.5779 13.5572 78.1733C13.8869 77.27 14.3416 76.4173 14.9079 75.64C15.2281 75.1801 15.5168 74.699 15.7719 74.2C16.3748 72.9772 16.8782 71.7077 17.2772 70.404C18.0377 67.8271 18.5656 65.1872 18.8545 62.516C19.3226 58.527 18.7178 54.4853 17.1025 50.808C16.1169 48.7686 14.9019 46.8482 13.4812 45.084C12.6812 44.004 11.8505 42.8853 11.1052 41.7107C9.82367 39.72 8.89455 37.5234 8.35853 35.2173C8.20512 34.5055 8.65122 33.8022 9.36057 33.6376C10.0699 33.473 10.7801 33.908 10.9559 34.6147C11.4246 36.6273 12.2365 38.5442 13.3559 40.2813C14.0479 41.376 14.8479 42.4533 15.6225 43.496C17.1654 45.4211 18.482 47.5171 19.5465 49.7427C21.3522 53.8553 22.027 58.3754 21.5012 62.836C21.1937 65.6689 20.631 68.4683 19.8199 71.2C19.3818 72.6344 18.8285 74.0309 18.1652 75.376C17.8612 75.977 17.5159 76.5561 17.1319 77.1093L17.0425 77.2427L47.2852 77.3333C48.1714 74.1706 49.7783 71.2562 51.9799 68.8187L50.7799 68.4013C49.8839 68.088 49.2079 67.852 48.8585 67.7347C43.1492 65.9147 40.2932 63.3147 40.3719 60.0013C40.3755 59.6474 40.5223 59.3101 40.7788 59.0662C41.0353 58.8223 41.3796 58.6926 41.7332 58.7067C42.4691 58.7241 43.0517 59.3347 43.0345 60.0707C43.0025 61.4347 44.1265 63.432 49.6692 65.1973C50.0319 65.3133 50.7359 65.5573 51.6572 65.8813C52.6479 66.2267 53.9039 66.6667 55.2905 67.1373H55.2999C59.0496 68.5123 62.8755 69.6698 66.7585 70.604C68.0004 70.8375 69.2077 70.0575 69.5052 68.8293C69.792 68.0768 69.9046 67.269 69.8345 66.4667C69.7959 66.2 69.7332 65.92 69.6719 65.648C69.3881 64.7173 69.3423 63.7303 69.5385 62.7773C69.9258 61.5564 70.8238 60.5635 71.9999 60.056L72.2865 59.892C72.1428 59.6001 71.9704 59.3232 71.7719 59.0653C71.5485 58.7816 71.4497 58.4194 71.4982 58.0615C71.5467 57.7036 71.7383 57.3807 72.0292 57.1667C72.3479 56.932 73.0959 56.3667 73.6559 55.9213C73.5919 55.8053 73.5225 55.6773 73.4545 55.5627C73.2452 55.1947 73.0052 54.7627 72.7732 54.2733C72.3506 53.3394 72.2268 52.2977 72.4185 51.2907C72.7372 49.664 74.2959 48.8667 75.4332 48.2853C75.8164 48.1031 76.1838 47.8894 76.5319 47.6467C76.8176 47.4553 77.0854 47.2384 77.3319 46.9987C77.3319 46.796 77.1145 46.3067 76.0999 45.0707C73.714 41.9966 71.6687 38.6727 69.9999 35.1573C69.6866 34.6063 69.5101 33.9881 69.4852 33.3547C69.6248 32.0131 70.3381 30.7976 71.4412 30.0213C71.9812 29.5253 72.4919 29.0587 72.5492 28.6653C72.537 28.3386 72.4637 28.0171 72.3332 27.7173C72.1159 27.1467 71.8639 26.5867 71.6132 26.0253C71.051 24.8672 70.6043 23.6565 70.2799 22.4107C69.9743 20.9164 69.5735 19.4431 69.0799 18C68.0289 15.099 66.4016 12.4407 64.2959 10.1853C61.7465 7.48534 57.7332 5.57601 52.3465 4.50668C48.2262 3.60207 44.0453 2.99957 39.8372 2.70401C38.4213 2.63105 37.002 2.66135 35.5905 2.79468C35.1151 2.83898 34.6522 2.62629 34.3761 2.23673C34.1001 1.84717 34.0528 1.33992 34.2521 0.906063C34.4515 0.472203 34.8671 0.177644 35.3425 0.133343C36.8832 -0.00782843 38.4321 -0.0385736 39.9772 0.041343C44.3153 0.34235 48.6255 0.960895 52.8732 1.89201C58.8852 3.09201 63.2545 5.20001 66.2359 8.35201C68.5901 10.8687 70.4098 13.8365 71.5852 17.076C72.1255 18.6525 72.5642 20.262 72.8985 21.8947C73.1835 22.9417 73.5665 23.9595 74.0425 24.9347C74.3092 25.5413 74.5839 26.148 74.8239 26.7787C75.1273 27.4836 75.2519 28.2526 75.1865 29.0173C74.9107 30.2075 74.219 31.26 73.2359 31.9853C72.5825 32.584 72.1519 33.0053 72.1465 33.3733C72.1951 33.5758 72.2713 33.7705 72.3732 33.952C73.9695 37.3141 75.9259 40.4932 78.2079 43.4333C79.1732 44.6107 80.1865 45.9827 79.9745 47.356C79.6906 48.4149 78.993 49.3153 78.0385 49.8547Z" fill="white"/>
<path d="M36.1877 7.46644L36.9877 11.4558C37.7589 11.709 38.5095 12.021 39.233 12.3891L42.6183 10.1224C43.6761 9.42972 45.0749 9.57506 45.9677 10.4704L48.181 12.6824C49.094 13.5788 49.2417 14.9972 48.533 16.0624L46.277 19.4318C46.6451 20.1553 46.9571 20.9059 47.2103 21.6771L51.1943 22.4771C52.4392 22.7286 53.334 23.8231 53.333 25.0931V28.2398C53.3339 29.5077 52.4419 30.6009 51.1997 30.8544L47.2103 31.6544C46.9571 32.4256 46.6451 33.1763 46.277 33.8998L48.5437 37.2851C49.2364 38.3429 49.091 39.7417 48.1957 40.6344L45.9823 42.8478C45.0844 43.7566 43.6691 43.9035 42.6037 43.1984L39.2343 40.9424C38.5109 41.3105 37.7602 41.6225 36.989 41.8758L36.189 45.8598C35.9381 47.1052 34.8434 48.0007 33.573 47.9998H30.4263C29.1585 48.0007 28.0653 47.1087 27.8117 45.8664L27.0117 41.8771C26.2405 41.6239 25.4898 41.3118 24.7663 40.9438L21.381 43.2104C20.3232 43.9032 18.9244 43.7578 18.0317 42.8624L15.8197 40.6504C14.9067 39.7541 14.759 38.3357 15.4677 37.2704L17.7237 33.9011C17.3556 33.1776 17.0436 32.427 16.7903 31.6558L12.8063 30.8558C12.015 30.6958 11.3394 30.1845 10.9703 29.4664L8.961 30.8131C8.5733 31.0573 8.12455 31.1872 7.66634 31.1878C7.02715 31.1879 6.4143 30.9331 5.96367 30.4798L4.19034 28.7064C3.38389 27.8959 3.25436 26.6317 3.87967 25.6744L5.59967 23.1011C5.35018 22.5997 5.13459 22.0821 4.95433 21.5518L1.937 20.9504C0.808075 20.7287 -0.00465393 19.7369 -0.000331879 18.5864V16.0798C-0.00437546 14.9336 0.802639 13.9445 1.92633 13.7184L4.957 13.1144C5.13584 12.584 5.35056 12.0664 5.59967 11.5651L3.853 8.96111C3.24776 8.00738 3.38634 6.76122 4.18633 5.96377L5.95967 4.19044C6.76999 3.3835 8.03455 3.25393 8.99167 3.87977L11.565 5.59977C12.0664 5.35028 12.584 5.13469 13.1143 4.95444L13.717 1.9371C13.9387 0.808673 14.9297 -0.00391016 16.0797 -0.000229004H18.5863C19.7325 -0.00427377 20.7216 0.802742 20.9477 1.92644L21.5517 4.9571C22.0822 5.13724 22.5998 5.3533 23.101 5.60377L25.705 3.8571C26.659 3.2529 27.9044 3.39141 28.7023 4.19044L29.9023 5.39044C30.0747 5.35448 30.2502 5.33528 30.4263 5.3331H33.573C34.8409 5.33221 35.9341 6.22417 36.1877 7.46644ZM15.8037 12.6931L16.4263 12.0704C14.1153 12.3798 12.2771 14.1618 11.8962 16.4622C11.5153 18.7626 12.681 21.042 14.769 22.0798L16.793 21.6798C17.0463 20.9086 17.3583 20.1579 17.7263 19.4344L15.4597 16.0491C14.7645 14.9917 14.9082 13.5913 15.8037 12.6971V12.6931ZM26.9637 6.21844L23.9157 8.26644C23.4882 8.55306 22.934 8.56811 22.4917 8.30511C21.7284 7.8559 20.9075 7.51275 20.0517 7.2851C19.5626 7.15303 19.1907 6.75524 19.0917 6.25844L18.3757 2.66644H16.2903L15.5743 6.26644C15.4753 6.76324 15.1034 7.16103 14.6143 7.2931C13.7585 7.52075 12.9376 7.8639 12.1743 8.3131C11.7305 8.57372 11.1762 8.55556 10.7503 8.26644L7.70234 6.2211L6.22234 7.7011L8.26634 10.7504C8.55296 11.1779 8.56801 11.7321 8.305 12.1744C7.8558 12.9377 7.51265 13.7586 7.285 14.6144C7.15293 15.1035 6.75513 15.4754 6.25834 15.5744L2.65833 16.2904V18.3758L6.25167 19.0918C6.74847 19.1908 7.14626 19.5627 7.27834 20.0518C7.50598 20.9076 7.84913 21.7285 8.29834 22.4918C8.56134 22.9341 8.54629 23.4883 8.25967 23.9158L6.21434 26.9638L7.69434 28.4438L10.6663 26.4558V25.0931C10.6662 24.3124 11.0071 23.5707 11.5997 23.0624C9.25229 20.8011 8.51579 17.3396 9.73925 14.3185C10.9627 11.2974 13.9003 9.32384 17.1597 9.33311C17.9658 9.33817 18.7662 9.46954 19.5317 9.72244C20.1831 9.62752 20.8469 9.77354 21.3983 10.1331L24.765 12.3891C25.4885 12.021 26.2391 11.709 27.0103 11.4558L27.8103 7.47177C27.8339 7.36494 27.8647 7.25982 27.9023 7.1571L26.9637 6.21844ZM34.533 12.7691L33.573 7.99977H30.4263L29.4677 12.7731C29.368 13.2685 28.9968 13.665 28.509 13.7971C27.4074 14.0941 26.3491 14.5333 25.361 15.1038C24.9207 15.3592 24.3734 15.3416 23.9503 15.0584L19.9157 12.3598L17.681 14.5824L20.3877 18.6211C20.6708 19.0441 20.6884 19.5914 20.433 20.0318C19.8626 21.0199 19.4233 22.0781 19.1263 23.1798C18.9943 23.6676 18.5978 24.0388 18.1023 24.1384L13.333 25.0918V28.2398L18.1063 29.1984C18.6018 29.2981 18.9983 29.6693 19.1303 30.1571C19.4273 31.2587 19.8666 32.317 20.437 33.3051C20.6924 33.7454 20.6748 34.2928 20.3917 34.7158L17.693 38.7504L19.9157 40.9851L23.9543 38.2784C24.3774 37.9953 24.9247 37.9777 25.365 38.2331C26.3531 38.8035 27.4114 39.2428 28.513 39.5398C29.0008 39.6718 29.372 40.0683 29.4717 40.5638L30.4263 45.3331H33.573L34.5317 40.5598C34.6313 40.0643 35.0025 39.6679 35.4903 39.5358C36.592 39.2388 37.6502 38.7995 38.6383 38.2291C39.0787 37.9737 39.626 37.9913 40.049 38.2744L44.0837 40.9731L46.3183 38.7504L43.6117 34.7118C43.3285 34.2888 43.3109 33.7414 43.5663 33.3011C44.1368 32.313 44.576 31.2547 44.873 30.1531C45.0051 29.6653 45.4016 29.2941 45.897 29.1944L50.6663 28.2398V25.0931L45.893 24.1344C45.3976 24.0348 45.0011 23.6636 44.869 23.1758C44.572 22.0741 44.1328 21.0159 43.5623 20.0278C43.3069 19.5874 43.3245 19.0401 43.6077 18.6171L46.3063 14.5824L44.0837 12.3478L40.045 15.0544C39.622 15.3376 39.0747 15.3552 38.6343 15.0998C37.6462 14.5293 36.588 14.0901 35.4863 13.7931C35.0006 13.6593 34.6318 13.2631 34.533 12.7691Z" fill="white"/>
<path d="M31.9997 36.0002C26.845 36.0002 22.6663 31.8215 22.6663 26.6668C22.6663 21.5122 26.845 17.3335 31.9997 17.3335C37.1543 17.3335 41.333 21.5122 41.333 26.6668C41.3271 31.819 37.1519 35.9943 31.9997 36.0002ZM31.9997 20.0002C28.3178 20.0002 25.333 22.9849 25.333 26.6668C25.333 30.3487 28.3178 33.3335 31.9997 33.3335C35.6816 33.3335 38.6663 30.3487 38.6663 26.6668C38.6619 22.9868 35.6797 20.0046 31.9997 20.0002Z" fill="#00BBD3"/>
<path d="M31.9997 27.9999C31.2633 27.9999 30.6664 27.403 30.6664 26.6666C30.6664 25.9302 31.2633 25.3333 31.9997 25.3333C32.7361 25.3333 33.333 25.9302 33.333 26.6666C33.333 27.403 32.7361 27.9999 31.9997 27.9999Z" fill="white"/>
</g>
<defs>
<clipPath id="clip0">
<rect width="80" height="80" fill="white" transform="matrix(-1 0 0 1 80 0)"/>
</clipPath>
</defs>
</svg>

<svg width="80" height="80" fill="none" xmlns="http://www.w3.org/2000/svg"><g clip-path="url(#clip0)"><path d="M78.038 49.855a9.781 9.781 0 01-1.383.8c-.578.294-1.543.788-1.611 1.134-.085.456-.03.926.156 1.35.198.426.408.793.587 1.11.489.862 1.305 2.306.073 3.314-.288.266-.785.652-1.24 1a3.36 3.36 0 01.434 1.924c-.07.524-.353.997-.782 1.306-.3.214-.622.4-.934.58-.783.447-1.09.655-1.2 1.067a3.681 3.681 0 00.147 1.615c.079.346.155.692.204 1.046a7.836 7.836 0 01-.45 3.592 4.996 4.996 0 01-4.725 3.64 5.418 5.418 0 01-1.089-.114 101.089 101.089 0 01-11.241-3.364c-3.003 1.762-4.901 7.122-5.396 9.134A1.333 1.333 0 0148.293 80l-33.467-.093a1.333 1.333 0 01-1.269-1.734 10.3 10.3 0 011.35-2.533c.321-.46.61-.941.865-1.44a25.38 25.38 0 001.505-3.796 44.94 44.94 0 001.578-7.888 22.57 22.57 0 00-1.753-11.708c-.985-2.04-2.2-3.96-3.62-5.724-.8-1.08-1.631-2.199-2.377-3.373a20.621 20.621 0 01-2.746-6.494 1.333 1.333 0 012.597-.602 17.997 17.997 0 002.4 5.666c.692 1.095 1.492 2.172 2.267 3.215a32.214 32.214 0 013.924 6.247A25.224 25.224 0 0121.5 62.836a47.327 47.327 0 01-1.68 8.364 27.808 27.808 0 01-1.655 4.176c-.304.601-.65 1.18-1.033 1.733l-.09.134 30.243.09a21.261 21.261 0 014.695-8.514l-1.2-.418c-.896-.313-1.572-.549-1.922-.666-5.709-1.82-8.565-4.42-8.486-7.734a1.309 1.309 0 011.361-1.294 1.333 1.333 0 011.302 1.364c-.032 1.364 1.092 3.361 6.634 5.126.363.116 1.067.36 1.988.684.99.346 2.247.786 3.634 1.256h.009a103.824 103.824 0 0011.459 3.467 2.375 2.375 0 002.746-1.775c.287-.752.4-1.56.33-2.362a10.94 10.94 0 00-.163-.819 5.82 5.82 0 01-.133-2.87 4.42 4.42 0 012.46-2.722l.288-.164a4.913 4.913 0 00-.515-.827 1.333 1.333 0 01.257-1.898 65.79 65.79 0 001.627-1.246c-.064-.116-.134-.244-.202-.358-.209-.368-.449-.8-.68-1.29a4.977 4.977 0 01-.356-2.982c.32-1.627 1.878-2.424 3.015-3.006a7.71 7.71 0 001.099-.638c.286-.192.553-.409.8-.648 0-.203-.217-.692-1.232-1.928a53.794 53.794 0 01-6.1-9.914 3.962 3.962 0 01-.515-1.802 4.667 4.667 0 011.956-3.334c.54-.496 1.05-.962 1.108-1.356a2.62 2.62 0 00-.216-.948c-.217-.57-.47-1.13-.72-1.692a19.568 19.568 0 01-1.333-3.614A35.781 35.781 0 0069.08 18a22.863 22.863 0 00-4.784-7.815c-2.55-2.7-6.563-4.609-11.95-5.678a86.642 86.642 0 00-12.509-1.803 29.186 29.186 0 00-4.247.09 1.336 1.336 0 01-.248-2.66 32.307 32.307 0 014.635-.093 89 89 0 0112.896 1.851c6.012 1.2 10.382 3.308 13.363 6.46a25.504 25.504 0 015.35 8.724 38.98 38.98 0 011.313 4.819 17.273 17.273 0 001.144 3.04c.266.606.54 1.213.78 1.844.304.705.429 1.474.364 2.238a5.126 5.126 0 01-1.951 2.968c-.654.599-1.084 1.02-1.09 1.388.05.203.125.398.227.579a51.462 51.462 0 005.835 9.481c.965 1.178 1.978 2.55 1.767 3.923a4.085 4.085 0 01-1.936 2.499z" fill="#fff"/><path d="M36.188 7.466l.8 3.99c.77.253 1.522.565 2.245.933l3.385-2.267a2.667 2.667 0 013.35.348l2.213 2.212a2.667 2.667 0 01.352 3.38l-2.256 3.37c.368.723.68 1.474.933 2.245l3.984.8a2.667 2.667 0 012.139 2.616v3.147a2.667 2.667 0 01-2.133 2.614l-3.99.8a15.866 15.866 0 01-.933 2.246l2.267 3.385a2.667 2.667 0 01-.348 3.35l-2.214 2.213a2.675 2.675 0 01-3.378.35l-3.37-2.256c-.723.368-1.474.68-2.245.934l-.8 3.984A2.667 2.667 0 0133.573 48h-3.147a2.667 2.667 0 01-2.614-2.134l-.8-3.989a15.878 15.878 0 01-2.246-.933l-3.385 2.266a2.666 2.666 0 01-3.35-.348L15.82 40.65a2.667 2.667 0 01-.352-3.38l2.256-3.369a15.877 15.877 0 01-.934-2.245l-3.984-.8a2.656 2.656 0 01-1.836-1.39l-2.009 1.347a2.435 2.435 0 01-1.295.375 2.4 2.4 0 01-1.702-.708L4.19 28.706a2.421 2.421 0 01-.31-3.032l1.72-2.573a12.53 12.53 0 01-.646-1.55l-3.017-.6A2.4 2.4 0 010 18.585V16.08a2.4 2.4 0 011.926-2.362l3.031-.604c.179-.53.394-1.048.643-1.549L3.853 8.961a2.41 2.41 0 01.333-2.997L5.96 4.19a2.42 2.42 0 013.032-.31l2.573 1.72c.501-.25 1.019-.465 1.55-.646l.602-3.017A2.4 2.4 0 0116.08 0h2.506a2.4 2.4 0 012.362 1.926l.604 3.031c.53.18 1.048.396 1.549.647l2.604-1.747a2.412 2.412 0 012.997.333l1.2 1.2a2.72 2.72 0 01.524-.057h3.147c1.268 0 2.361.891 2.615 2.133zm-20.384 5.227l.622-.623a5.305 5.305 0 00-1.657 10.01l2.024-.4a15.89 15.89 0 01.933-2.246L15.46 16.05a2.667 2.667 0 01.344-3.352v-.004zm11.16-6.475l-3.048 2.048a1.333 1.333 0 01-1.424.04 9.755 9.755 0 00-2.44-1.02 1.333 1.333 0 01-.96-1.028l-.716-3.592H16.29l-.716 3.6c-.099.497-.47.895-.96 1.027a9.755 9.755 0 00-2.44 1.02c-.444.26-.998.243-1.424-.047L7.702 6.221l-1.48 1.48 2.044 3.05c.287.427.302.981.039 1.423a9.755 9.755 0 00-1.02 2.44c-.132.49-.53.861-1.027.96l-3.6.716v2.086l3.594.716c.496.099.894.47 1.026.96a9.768 9.768 0 001.02 2.44c.263.442.248.996-.038 1.424l-2.046 3.048 1.48 1.48 2.972-1.988v-1.363c0-.78.341-1.522.934-2.03a7.981 7.981 0 015.56-13.73 7.716 7.716 0 012.372.39 2.704 2.704 0 011.866.41l3.367 2.256c.723-.368 1.474-.68 2.245-.933l.8-3.984c.024-.107.055-.212.092-.315l-.938-.939zm7.569 6.551L33.573 8h-3.147l-.958 4.774c-.1.495-.471.892-.959 1.024-1.102.297-2.16.736-3.148 1.307-.44.255-.988.238-1.41-.046l-4.035-2.698-2.235 2.222 2.707 4.04c.283.422.3.97.045 1.41-.57.988-1.01 2.046-1.307 3.148a1.333 1.333 0 01-1.024.958l-4.769.954v3.148l4.773.958c.496.1.892.471 1.024.96.297 1.1.737 2.159 1.307 3.147.255.44.238.988-.045 1.41l-2.699 4.035 2.223 2.235 4.038-2.707c.423-.283.97-.3 1.411-.045.988.57 2.046 1.01 3.148 1.307.488.132.859.528.959 1.024l.954 4.77h3.147l.959-4.774c.1-.496.47-.892.958-1.024a13.135 13.135 0 003.148-1.307c.44-.255.988-.238 1.411.045l4.035 2.7 2.234-2.224-2.706-4.038a1.331 1.331 0 01-.046-1.41 13.17 13.17 0 001.307-3.149 1.333 1.333 0 011.024-.959l4.77-.954v-3.147l-4.774-.959c-.495-.1-.892-.47-1.024-.958a13.131 13.131 0 00-1.307-3.148 1.333 1.333 0 01.046-1.41l2.698-4.036-2.222-2.234-4.039 2.706c-.423.284-.97.301-1.41.046a13.131 13.131 0 00-3.149-1.307 1.333 1.333 0 01-.953-1.024z" fill="#fff"/><path d="M32 36a9.333 9.333 0 119.333-9.333A9.344 9.344 0 0132 36zm0-16a6.667 6.667 0 106.666 6.667A6.675 6.675 0 0032 20z" fill="#00BBD3"/><path d="M32 28a1.333 1.333 0 110-2.667A1.333 1.333 0 0132 28z" fill="#fff"/></g><defs><clipPath id="clip0"><path fill="#fff" transform="matrix(-1 0 0 1 80 0)" d="M0 0h80v80H0z"/></clipPath></defs></svg>
